!!!!SEGMENT: pl-gd--ee-2628--005-002_stabile-annibale--il-primo-libro-de-madrigali-a-cinque-voci-deh-quando-fia.krn
!!!cenid: 15xx:1047
!!!COM: Stabile, Annibale
!!!COM-rismID: pe30009662
!!!CDT: ~1535-1595/04
!!!CNT: Italian
!!!GTL: Il primo libro de madrigali a cinque voci
!!!OTL: Deh quando fia
!!!OMV: 002
!!!PDT: 1586
!!!AGN:
!!!SMS-siglum: PL-GD
!!!SMS-shelfmark: Ee 2628
!!!SMS-variant:
!!!SMS-altvar:
!!!SMS-shelfwork: 005-002 G
!!!NIFC-rismSourceID: 990060531
!!!NIFC-islandoraID: pl-gd:66139
!!!URL-pdf-islandora: https://repozytorium.nifc.pl/islandora/object/pl-gd%3A66139/datastream/PDF/view
!!!URL-scan: https://polish.musicsources.pl/pl/lokalizacje/galeria/klocki-introligatorskie/673 @EN{Scan on Polish Music Sources Website} @PL{Skany w portalu Dziedzictwo Muzyki Polskiej w otwartym dostępie}
!!!ONB-nifc: UWAGA: Canto: s. 78-89, Tenore: s. 233-245, Basso: s. 390-401, Quinto: s. 712-723. Dla głosu Alto proszę skorzystać z https://pbc.gda.pl/dlibra/doccontent?id=79410, str. 25-48. Uwaga: utwory podzielone wg spisu treści dostępnych na końcu ksiąg – proszę sprawdzać sąsiednie tytuły. Głos Quinto proszę umieszczać wg ambitusu (może się różnić w zależności od utworu).
!!!AIN: 1 alto 1 bass 2 soprn 1 tenor
!!!key: g
**kern	**text	**kern	**text	**kern	**text	**kern	**text	**kern	**text
*part5	*part5	*part4	*part4	*part3	*part3	*part2	*part2	*part1	*part1
*staff5	*staff5	*staff4	*staff4	*staff3	*staff3	*staff2	*staff2	*staff1	*staff1
*I"BASSO	*	*I"TENORE	*	*I"ALTO	*	*I"QVINTO	*	*I"CANTO	*
*I'B.	*	*I'T.	*	*I'A.	*	*I'Q	*	*I'C.	*
*ICvox	*	*ICvox	*	*ICvox	*	*ICvox	*	*Cvox	*
*Ibass	*	*Itenor	*	*Ialto	*	*Isoprn	*	*Isoprn	*
*clefF4	*	*clefC4	*	*clefC3	*	*clefC1	*	*clefC1	*
*k[b-]	*	*k[b-]	*	*k[b-]	*	*k[b-]	*	*k[b-]	*
*g:	*	*g:	*	*g:	*	*g:	*	*g:	*
*M2/1	*	*M2/1	*	*M2/1	*	*M2/1	*	*M2/1	*
*met(C)	*	*met(C)	*	*met(C)	*	*met(C)	*	*met(C)	*
=1-	=1-	=1-	=1-	=1-	=1-	=1-	=1-	=1-	=1-
!LO:TX:b:t=DEh quando fia che per me	!	!	!	!	!	!	!	!	!
!LO:TX:a:i:t=Seconda parte.	!	!LO:TX:a:i:t=Seconda parte.	!	!LO:TX:a:i:t=Seconda parte.	!	!LO:TX:a:i:t=Seconda parte.	!	!LO:TX:a:i:t=Seconda parte.	!
00r	.	0r	.	2r	.	2r	.	2g/	DEh
.	.	.	.	2G/	DEh	2d/	DEh	4b-\	quan-
.	.	.	.	.	.	.	.	4b-\	-do
.	.	.	.	4d\	quan-	4f/	quan-	4a\	fia
.	.	.	.	4d\	-do	4f/	-do	4f/	che
.	.	.	.	4c/	fia	4e/	fia	4g/	per
.	.	.	.	4A/	che	4c/	che	4a\	me
=2-	=2-	=2-	=2-	=2-	=2-	=2-	=2-	=2-	=2-
!	!	!	!	!LO:N:acc=#	!	!	!	!	!
.	.	1r	.	4Bn/	per	4d/	per	4g/	tor-
.	.	.	.	4c/	me	4e/	me	4g/	ni A-
.	.	.	.	4d\	tor-	4d/	tor-	4f/	-pri-
.	.	.	.	4B/	ni A-	4d/	ni A-	8e/	.
.	.	.	.	.	.	.	.	8d/	.
.	.	2r	.	2A/	-pri-	2c#X/	-pri-	2e/	.
.	.	2D/	DEh	4A/	-le	4d/	-le	4f#X/	-le
.	.	.	.	4d\	Deh	4f#X/	Deh	4a\	Deh
!	!	!	!	!	!	!	!	!LO:SIC:v:t=custos b-	!
!	!	!	!	!	!	!	!	!LO:LB:g=original	!
=3-	=3-	=3-	=3-	=3-	=3-	=3-	=3-	=3-	=3-
0r	.	4G/	quan-	4d\	quan-	4g/	quan-	4b-\	quan-
.	.	4G/	-do	4e\	-do	4g/	-do	4b-\	-do
!	!	!	!	!LO:SIC:v:t=custos f	!	!	!	!	!
!	!	!	!	!LO:LB:g=original	!	!	!	!	!
!	!	!	!	!	!	!LO:SIC:v:t=custos c	!	!	!
!	!	!	!	!	!	!LO:LB:g=original	!	!	!
.	.	4F/	fia	4f\	fia	4cny/	fia	4a\	fia
.	.	4D/	che	4F/	che	4fny/	che	4b-\	che
.	.	4E/	per	4G/	per	4e/	per	4cc\	per
.	.	4F/	me	4A/	me	4d/	me	4a\	me
.	.	4G/	tor-	4B-/	tor-	4d/	tor-	4g/	tor-
.	.	4E/	ni A-	4G/	ni A-	4c/	ni A-	2g/	ni A-
=4-	=4-	=4-	=4-	=4-	=4-	=4-	=4-	=4-	=4-
1r	.	2D/	-pri-	4B-/	-pri-	1d	-pri-	.	.
.	.	.	.	8A/	.	.	.	8f#X/	-pri-
.	.	.	.	8G/	.	.	.	8e/	.
.	.	2D/	-le	2A/	.	.	.	2f#X/	.
2G\	Et	4r	.	4G/	-le	2d/	-le	4g/	-le
.	.	4G/	(et)	4d\	(et)	.	.	4b-\	(et)
!	!	!LO:SIC:v:t=custos A	!	!	!	!	!	!	!
!	!	!LO:LB:g=original	!	!	!	!	!	!	!
4F#X\	che	4A/	che	4d\	che	2r	.	4a\	che
!	!	!LO:N:acc=#	!	!	!	!	!	!	!
4G\	ſi-	4Bn\	ſi-	4d\	ſi-	.	.	4g/	ſi-
=5-	=5-	=5-	=5-	=5-	=5-	=5-	=5-	=5-	=5-
2C/	-cur	2c\	-cur	2e\	-cur	2r	.	2g/	-cur
2BB-/	d'o-	2F/	d'o-	2f\	d'o-	2dd\	d'o-	2b-\	d'o-
2E-X\	-gni	2.G/	-gni	2.e-X\	-gni	4b-\	-gni	2g/	-gni
.	.	.	.	.	.	4b-\	tem-	.	.
!	!	!	!	!	!	!	!	!LO:SIC:v:t=custos g	!
!	!	!	!	!	!	!	!	!LO:LB:g=original	!
2C/	tem-	.	.	.	.	2.cc\	-pe-	4g/	tem-
.	.	4c\	tem-	4e-\	tem-	.	.	2a\	-peſ-
!LO:SIC:v:t=custos D	!	!	!	!	!	!	!	!	!
!LO:LB:g=original	!	!	!	!	!	!	!	!	!
=6-	=6-	=6-	=6-	=6-	=6-	=6-	=6-	=6-	=6-
4D/	-pe-	4F/	-pe-	4d\	-pe-	.	.	.	.
4GG/	ſta il	4G/	ſta il	4d\	ſta il	4b-\	ſta il	4g/	ta il
!	!	!	!	!LO:SIC:v:t=custos d	!	!	!	!	!
!	!	!	!	!LO:LB:g=original	!	!	!	!	!
2D/	le-	2A/	le-	2d\	le-	2a\	le-	2f#X/	le-
!	!	!	!	!	!	!LO:N:acc=#	!	!	!
2GG/	-gno	1G	-gno	1d	-gno	1bn	-gno	1g	-gno
4G\	Sol	.	.	.	.	.	.	.	.
8G\	chi	.	.	.	.	.	.	.	.
8G\	di-	.	.	.	.	.	.	.	.
=7-	=7-	=7-	=7-	=7-	=7-	=7-	=7-	=7-	=7-
4Fny\	-rit-	1r	.	4d\	Sol	1r	.	1r	.
4D/	to il	.	.	8d\	chi	.	.	.	.
.	.	.	.	8d\	di-	.	.	.	.
4Eny\	pre-	.	.	4c/	-rit-	.	.	.	.
4F\	-ti-	.	.	4A/	to il	.	.	.	.
4G\	-o-	1r	.	4B-/	pre-	2r	.	4g/	Sol
4E\	-ſo	.	.	4G/	-ti-	.	.	8g/	chi
.	.	.	.	.	.	.	.	8g/	di-
2D/	ma-	.	.	4A/	-o-	4dd\	Sol	4fny/	-rit-
.	.	.	.	4B-/	-ſo	8dd\	chi	4d/	to il
.	.	.	.	.	.	8dd\	di-	.	.
!	!	!	!	!	!	!LO:SIC:v:t=custos cc	!	!	!
!	!	!	!	!	!	!LO:LB:g=original	!	!	!
=8-	=8-	=8-	=8-	=8-	=8-	=8-	=8-	=8-	=8-
2AA/	-re	2r	.	2c\	ma-	4cc\	-rit-	4e/	pre-
.	.	.	.	.	.	4a\	to il	4f/	-ti-
2r	.	4G/	Sol	2d\	-re	4.b-y\	pre-	4g/	-o-
.	.	8G/	chi	.	.	.	.	8d/	-ſo
.	.	8G/	di-	.	.	8b-\	-ti-	8e/	.
1r	.	4F/	-rit-	4r	.	4.a\	-o-	8f/	.
.	.	.	.	.	.	.	.	8g/	.
.	.	4D/	to il	4d\	il	.	.	8a\	.
.	.	.	.	.	.	8b-\	.	8f/	.
!	!	!	!	!	!	!	!	!LO:SIC:v:t=custos g	!
!	!	!	!	!	!	!	!	!LO:LB:g=original	!
.	.	4E/	pre-	4G/	pre-	2cc\	.	4g/	.
.	.	4F/	-ti-	4A/	-ti-	.	.	8f/	.
.	.	.	.	.	.	.	.	8e/	.
!	!	!LO:SIC:v:t=custos G	!	!	!	!	!	!	!
!	!	!LO:LB:g=original	!	!	!	!	!	!	!
=9-	=9-	=9-	=9-	=9-	=9-	=9-	=9-	=9-	=9-
1r	.	4G/	-o-	4B-/	-o-	4b-\	-ſo	4d/	.
.	.	4A/	-ſo	4c/	-ſo	2a\	ma-	2f/	ma-
.	.	2B-y\	ma-	1d	ma-	.	.	.	.
.	.	.	.	.	.	4g\	.	8e/	.
.	.	.	.	.	.	.	.	8d/	.
1AA	Et	2A/	-re	.	.	1a	-re	1e	.
.	.	2A/	Et	2c#X/	-re	.	.	.	.
=10-	=10-	=10-	=10-	=10-	=10-	=10-	=10-	=10-	=10-
2BB-/	che	2F/	che	4r	.	4r	.	0d	-re
!	!	!	!	!LO:SIC:v:t=custos d	!	!	!	!	!
!	!	!	!	!LO:LB:g=original	!	!	!	!	!
.	.	.	.	4d\	Et	4dd\	Et	.	.
2GG/	con	2G/	con	4d\	che	4b-\	che	.	.
.	.	.	.	4g\	con	4b-\	con	.	.
!LO:SIC:v:t=custos D	!	!	!	!	!	!	!	!	!
!LO:LB:g=original	!	!	!	!	!	!	!	!	!
2.D/	dol-	2.A/	dol-	2.f#X\	dol-	2.a\	dol-	.	.
!	!	!	!	!	!	!LO:N:acc=#	!	!	!
4G\	ce (et)	4G/	ce (et)	4g\	ce (et)	4bn\	ce (et)	.	.
=11-	=11-	=11-	=11-	=11-	=11-	=11-	=11-	=11-	=11-
4.C/	a-	4.G/	a-	4.e\	a-	4.cc\	a-	1r	.
8C/	-mo-	8G/	-mo-	8e\	-mo-	8cc\	-mo-	.	.
!	!	!	!	!	!	!LO:SIC:v:t=custos cc	!	!	!
!	!	!	!	!	!	!LO:LB:g=original	!	!	!
4C/	-ro-	4G/	-ro-	4e\	-ro-	4cc\	-ro-	.	.
4AA/	-ſo	2A/	-ſo	4f\	-ſo	4cc\	-ſo	.	.
4.BB-/	ſti-	.	.	2d\	ſti-	2b-y\	ſti-	2r	.
.	.	4.G/	ſti-	.	.	.	.	.	.
8C/	.	.	.	.	.	.	.	.	.
2D/	.	.	.	2.d\	-le	2a\	-le	4r	.
.	.	8F#X/	.	.	.	.	.	.	.
.	.	4F#/	.	.	.	.	.	4dd\	Et
=12-	=12-	=12-	=12-	=12-	=12-	=12-	=12-	=12-	=12-
2GG/	-le	4G/	-le	.	.	4r	.	4b-\	che
.	.	4G/	Et	4g\	Et	4d/	Et	4b-\	con
!	!	!LO:SIC:v:t=custos d	!	!	!	!	!	!	!
!	!	!LO:LB:g=original	!	!	!	!	!	!	!
2r	.	4d\	che	4f\	che	4d/	che	2.a\	dol-
.	.	4c#X\	con	4e\	con	4e/	con	.	.
1r	.	4d\	dol-	4d\	dol-	4f#X/	dol-	.	.
!	!	!	!	!	!	!	!	!LO:N:acc=#	!
.	.	4G/	ce (et)	4d\	ce (et)	4g/	ce (et)	4bn\	ce (et)
.	.	4.cny\	a-	4.e\	a-	4.g/	a-	4.cc\	a-
.	.	8c\	-mo-	8e\	-mo-	8g/	-mo-	8cc\	-mo-
!	!	!	!	!LO:SIC:v:t=custos e	!	!	!	!	!
!	!	!	!	!LO:LB:g=original	!	!	!	!	!
=13-	=13-	=13-	=13-	=13-	=13-	=13-	=13-	=13-	=13-
1r	.	4c\	-ro-	4e\	-ro-	4g/	-ro-	4cc\	-ro-
.	.	4Fny/	-ſo	4f\	-ſo	4a\	-ſo	4cc\	-ſo
!	!	!	!	!	!	!	!	!LO:SIC:v:t=custos b-	!
!	!	!	!	!	!	!	!	!LO:LB:g=original	!
.	.	2G/	ſti-	2.d\	ſti-	2g/	ſti-	2b-\	ſti-
2r	.	2D/	-le	.	.	2f#X/	-le	1a	-le
.	.	.	.	8cny/	.	.	.	.	.
.	.	.	.	8B-/	.	.	.	.	.
2.D/	Cant'-	2.d\	Cant'-	1A/	.	2.f#/	Cant'-	.	.
=14-	=14-	=14-	=14-	=14-	=14-	=14-	=14-	=14-	=14-
.	.	.	.	.	.	.	.	1r	.
4D/	-il	4d\	-il	.	.	4f#X/	-il	.	.
2F#X\	mio	2d\	mio	2D/	-le	2a\	mio	.	.
!	!	!	!	!	!	!LO:SIC:v:t=custos d	!	!	!
1G	ca-	1B-	ca-	2r	.	2.d/	ca-	2r	.
.	.	.	.	2.d\	Cant'-	.	.	2.dd\	Can-
.	.	.	.	.	.	4e/	.	.	.
=15-	=15-	=15-	=15-	=15-	=15-	=15-	=15-	=15-	=15-
1D	-ro	1A	ro et	.	.	4f#X/	.	.	.
.	.	.	.	4d\	-il	4g/	.	4dd\	to il
.	.	.	.	2f#X\	mio	2a\	.	2dd\	mio
2r	.	2.G/	gra-	1g	ca-	2d/	-ro	1b-	ca-
2G\	(et)	.	.	.	.	2.dd\	Cant'-	.	.
.	.	4G/	-ti-	.	.	.	.	.	.
!LO:SIC:v:t=custos F#	!	!	!	!	!	!	!	!	!
!LO:LB:g=original	!	!	!	!	!	!	!	!	!
=16-	=16-	=16-	=16-	=16-	=16-	=16-	=16-	=16-	=16-
2.F#X\	gra-	2A/	-o-	1d	-ro	.	.	1a	-ro
.	.	.	.	.	.	4dd\	-il	.	.
.	.	2D/	-ſo	.	.	2dd\	mio	.	.
4F#\	-ti-	.	.	.	.	.	.	.	.
!	!	!LO:SIC:v:t=custos d	!	!	!	!	!	!	!
!	!	!LO:LB:g=original	!	!	!	!	!	!	!
2G\	-o-	1.d	pe-	2r	.	1b-	ca-	2r	.
2GG/	-ſo	.	.	2g\	(et)	.	.	2.dd\	Can-
=17-	=17-	=17-	=17-	=17-	=17-	=17-	=17-	=17-	=17-
1D	pe-	.	.	2.f#X\	gra-	1a	ro et	.	.
.	.	.	.	.	.	.	.	4dd\	to il
.	.	2A/	-gno	.	.	.	.	2dd\	mio
.	.	.	.	4f#\	-ti-	.	.	.	.
!	!	!	!	!	!	!	!	!LO:N:acc=#	!
2GG/	-gno	1r	.	2g\	-o-	1.g	gra-	2bn\	ca-
*	*ij	*	*	*	*	*	*	*	*
2C/	(et)	.	.	2e-X\	-ſo	.	.	2cc\	ro et
!	!	!	!	!LO:SIC:v:t=custos d	!	!	!	!	!
!	!	!	!	!LO:LB:g=original	!	!	!	!	!
=18-	=18-	=18-	=18-	=18-	=18-	=18-	=18-	=18-	=18-
!LO:N:acc=#	!	!	!	!	!	!	!	!	!
2.BBn/	gra-	2r	.	1d	pe-	.	.	2.dd\	gra-
.	.	2d\	e	.	.	2g/	-ti-	.	.
4BB/	-ti-	.	.	.	.	.	.	4dd\	-ti-
2C/	-o-	2.e-X\	gra-	0G	-gno	2g/	-o-	2cc\	-o-
2C/	-ſo	.	.	.	.	2g/	-ſo	2cc\	-ſo
.	.	4e-\	-ti-	.	.	.	.	.	.
=19-	=19-	=19-	=19-	=19-	=19-	=19-	=19-	=19-	=19-
1GG	pe-	4d\	-o-	.	.	1g	pe-	1b-	pe-
.	.	4d\	-ſo	.	.	.	.	.	.
.	.	2d\	pe-	.	.	.	.	.	.
2D/	-gno	2d\	-gno	1r	.	1f#X	-gno	1a	-gno
*	*Xij	*	*	*	*	*	*	*	*
4r	.	2D/	I	.	.	.	.	.	.
4D/	I	.	.	.	.	.	.	.	.
=20-	=20-	=20-	=20-	=20-	=20-	=20-	=20-	=20-	=20-
4C#X/	dol-	4E/	dol-	2r	.	1r	.	0r	.
4D/	-ci	4F#X/	-ci	.	.	.	.	.	.
!LO:SIC:v:t=custos BB-	!	!	!	!	!	!	!	!	!
!LO:LB:g=original	!	!	!	!	!	!	!	!	!
2BB-/	ba-	2G/	ba-	2d\	I	.	.	.	.
4AA/	-ci	4A/	-ci	4c#X/	dol-	2r	.	.	.
4A\	I	4D/	I	4d\	-ci	.	.	.	.
4.G\	dol-	2.d\	dol-	4.B-/	ba-	4r	.	.	.
!	!	!	!	!	!	!LO:SIC:v:t=custos g	!	!	!
!	!	!	!	!	!	!LO:LB:g=original	!	!	!
.	.	.	.	.	.	4g/	I	.	.
16Fny\	.	.	.	16A/	.	.	.	.	.
16E\	.	.	.	16G/	.	.	.	.	.
=21-	=21-	=21-	=21-	=21-	=21-	=21-	=21-	=21-	=21-
4D\	.	.	.	4A/	.	4f#X/	dol-	2r	.
4E-X\	-ci	4B-\	-ci	2G/	-ci	4g/	-ci	.	.
!	!	!LO:SIC:v:t=custos c	!	!	!	!	!	!	!
!	!	!LO:LB:g=original	!	!	!	!	!	!	!
2Cny/	ba-	4c\	ba-	.	.	2e-X/	ba-	4r	.
!	!	!	!	!	!	!	!	!LO:SIC:v:t=custos cc	!
!	!	!	!	!	!	!	!	!LO:LB:g=original	!
.	.	4G/	-ci	4g\	I	.	.	4cc\	I
!	!	!	!	!	!	!	!	!LO:N:acc=#	!
4GG/	-ci	4r	.	8g\	dol-	4d/	-ci	4bn\	dol-
.	.	.	.	8fny\	.	.	.	.	.
*	*ij	*	*ij	*	*	*	*	*	*
4C/	I	4G/	I	8eny\	.	4c/	I	4cc\	-ci
.	.	.	.	8d\	.	.	.	.	.
4C/	dol-	4G/	dol-	4e\	.	4cc\	dol-	2a\	ba-
4D/	-ci	4F#X/	-ci	4d\	-ci	4a\	-ci	.	.
=22-	=22-	=22-	=22-	=22-	=22-	=22-	=22-	=22-	=22-
2GG/	ba-	2G/	ba-	2d\	ba-	2b-\	ba-	2g/	-ci
!	!	!	!	!LO:SIC:v:t=custos d	!	!	!	!	!
!	!	!	!	!LO:LB:g=original	!	!	!	!	!
2D\	-ci	4Fny/	-ci	4d\	-ci	4a\	-ci	4r	.
*	*Xij	*	*Xij	*	*	*	*	*	*
.	.	4D/	(et)	4f\	(et)	4dd\	(et)	4a\	(et)
1r	.	2A/	l'ac-	2e\	l'ac-	2cc\	l'ac-	2a\	l'ac-
.	.	4A/	-co-	4e\	-co-	4cc\	-co-	4a\	-co-
.	.	2F/	-glien-	2f\	-glien-	2cc\	-glien-	2a\	-glien-
=23-	=23-	=23-	=23-	=23-	=23-	=23-	=23-	=23-	=23-
1r	.	.	.	.	.	.	.	.	.
.	.	4G/	-ze	4d\	-ze	4b-\	-ze	4g/	-ze
.	.	2A/	ra-	2c#X/	ra-	2a\	ra-	2e/	ra-
2r	.	1D	-re	2d\	-re	2a\	-re	2f#X/	-re
2GG/	(et)	.	.	2d\	(et)	2b-\	(et)	2g/	(et)
!	!	!	!	!	!	!LO:SIC:v:t=custos a	!	!	!
!	!	!	!	!	!	!LO:LB:g=original	!	!	!
=24-	=24-	=24-	=24-	=24-	=24-	=24-	=24-	=24-	=24-
!LO:SIC:v:t=custos D	!	!	!	!	!	!	!	!	!
2D/	l'ac-	1r	.	2d\	l'ac-	2.a\	l'ac-	2.f#X/	l'ac-
2D/	-co-	.	.	1d	-co-	.	.	.	.
.	.	.	.	.	.	4a\	-co-	4f#/	-co-
!LO:N:acc=#	!	!	!	!	!	!	!	!	!
2BBn/	-glien-	4r	.	.	.	4g/	-glien-	2g/	-glien-
.	.	4D/	(et)	.	.	4fny/	-ze	.	.
!	!	!	!	!	!	!	!	!LO:SIC:v:t=custos a	!
!	!	!	!	!	!	!	!	!LO:LB:g=original	!
2C/	-ze	4A/	l'ac-	1c\	-glien-	2eny/	ra-	1a\	-ze
.	.	4A/	-co-	.	.	.	.	.	.
=25-	=25-	=25-	=25-	=25-	=25-	=25-	=25-	=25-	=25-
0D	ra-	2F#X/	-glien-	.	.	00.d	-re.	.	.
!	!	!LO:SIC:v:t=custos G	!	!	!	!	!	!	!
!	!	!LO:LB:g=original	!	!	!	!	!	!	!
.	.	2G/	-ze	2B-/	-ze	.	.	2.g/	ra-
.	.	4A/	ra-	1A	ra-	.	.	.	.
.	.	4D/	.	.	.	.	.	8f#X/	.
.	.	.	.	.	.	.	.	8e/	.
.	.	2d\	.	.	.	.	.	2f#X/	.
=26-	=26-	=26-	=26-	=26-	=26-	=26-	=26-	=26-	=26-
!	!	!LO:N:acc=#	!	!	!	!	!	!	!
00GG	-re.	00Bn	-re.	00G	-re.	.	.	00g	-re.
=27-	=27-	=27-	=27-	=27-	=27-	=27-	=27-	=27-	=27-
.	.	.	.	.	.	.	.	.	.
=-	=-	=-	=-	=-	=-	=-	=-	=-	=-
*-	*-	*-	*-	*-	*-	*-	*-	*-	*-
!!!system-decoration: [(s1,s2,s3,s4,s5)]
!!!ENC: Mateusz Solarz
!!!END: 2022-07-06
!!!ENC: Urszula Świątek
!!!END: 2022-07-28
